icons/badge/alert/octagon.svg

<svg width="32" height="32" viewBox="0 0 32 32" xmlns="http://www.w3.org/2000/svg"><path fill-rule="evenodd" clip-rule="evenodd" d="M9.66654 2.58579C10.0416 2.21071 10.5503 2 11.0808 2H20.919C21.4494 2 21.9581 2.21071 22.3332 2.58579L29.4141 9.66667C29.7892 10.0417 29.9999 10.5504 29.9999 11.0809V20.9191C29.9999 21.4496 29.7892 21.9583 29.4141 22.3333L22.3332 29.4142C21.9581 29.7893 21.4494 30 20.919 30H11.0808C10.5503 30 10.0416 29.7893 9.66654 29.4142L2.58566 22.3333C2.21059 21.9583 1.99988 21.4496 1.99988 20.9191V11.0809C1.99988 10.5504 2.21059 10.0417 2.58566 9.66667L9.66654 2.58579ZM20.919 4L11.0808 4L3.99988 11.0809V20.9191L11.0808 28L20.919 28L27.9999 20.9191L27.9999 11.0809L20.919 4ZM14.4999 20H17.4999V23H14.4999V20ZM16.9799 17L16.9797 8.99997L15.0201 9.00003L15.0203 17L16.9799 17Z"/></svg>

<svg viewBox="0 0 32 32" xmlns="http://www.w3.org/2000/svg"><path fill-rule="evenodd" d="M9.667 2.586A2 2 0 0111.08 2h9.838a2 2 0 011.414.586l7.081 7.08A2 2 0 0130 11.082v9.838a2 2 0 01-.586 1.414l-7.08 7.081a2 2 0 01-1.415.586h-9.838a2 2 0 01-1.414-.586l-7.081-7.08A2 2 0 012 20.918v-9.838a2 2 0 01.586-1.414l7.08-7.081zM20.919 4h-9.838L4 11.08v9.84L11.08 28h9.839l7.08-7.08v-9.84L20.92 4zm-6.42 16h3v3h-3v-3zm2.48-3V9H15.02v8h1.96z"/></svg>
